X: 1
T: Little Old Men of Abriachan, The
C: Donald Riddell
M: 4/4
R: Strathspey
L: 1/8
S: "Fire On" by Blazin' Fiddles
K: Am
|:A<A A2 B<d e>c|d>e g>d B>A G>D|G>A B>A G>A G>E|D>E G>A B<A A2:|
|:A<a a>g a<b a2|g>a b>a g<e e>f|g>a g/f/e d>e g>f|e<g G>A B<A A2:|
